;FLAVOR:Marlin
M73 P0
M117 Time Left 6h00m31s
;TIME:21631
;Filament used: 17.2085m
;Layer height: 0.2
;MINX:94.687
;MINY:30.629
;MINZ:0.3
;MAXX:215.839
;MAXY:162.628
;MAXZ:16.7
;POSTPROCESSED
;Generated with Cura_SteamEngine 4.9.0
M82 ;absolute extrusion mode
; Ender 3 Custom Start G-code
G92 E0 ; Reset Extruder
G28 ; Home all axes
M140 S65     ; set bed temperature to e.g. 55 째C and continue
M104 S210.0   ; set hot end temperature to e.g. 210 째C and continue
M190 S65     ; wait for bed temperature to reach e.g. 55 째C
M109 S210.0   ; wait for hot end temperature to reach e.g. 210 째C
G1 Z2.0 F3000 ; Move Z Axis up little to prevent scratching of Heat Bed
G1 X0.1 Y20 Z0.3 F5000.0 ; Move to start position
G1 X0.1 Y200.0 Z0.3 F1500.0 E15 ; Draw the first line
G1 X0.4 Y200.0 Z0.3 F5000.0 ; Move to side a little
G1 X0.4 Y20 Z0.3 F1500.0 E30 ; Draw the second line
G92 E0 ; Reset Extruder
G1 Z2.0 F3000 ; Move Z Axis up little to prevent scratching of Heat Bed
G1 X5 Y20 Z0.3 F5000.0 ; Move over to prevent blob squish
G92 E0
G92 E0
G1 F3000 E-5
;LAYER_COUNT:83
;LAYER:0
M117 Printing CE3_Cubierta abajo V1 - Layer 0 of 82
M107
G0 F6000 X95.688 Y38.698 Z0.3
;TYPE:SKIRT
G1 F3000 E0.02661
G1 F1200 X95.851 Y38.304 E0.04788
G1 X96.259 Y37.459 E0.09469
G1 X96.737 Y36.652 E0.14149
G1 X97.139 Y36.076 E0.17653
G1 X97.451 Y35.658 E0.20255
G1 X98.043 Y34.931 E0.24933
G1 X98.696 Y34.257 E0.29615
G1 X99.417 Y33.63 E0.34382
G1 X99.735 Y33.377 E0.36409
G1 X100.114 Y33.089 E0.38784
G1 X100.202 Y33.025 E0.39327
G1 X100.983 Y32.506 E0.44005
G1 X101.806 Y32.056 E0.48685
G1 X102.252 Y31.848 E0.5114
G1 X102.644 Y31.676 E0.53276
G1 X103.079 Y31.496 E0.55624
G1 X103.965 Y31.187 E0.60306
G1 X104.873 Y30.954 E0.64983
G1 X105.503 Y30.841 E0.68176
G1 X105.961 Y30.772 E0.70487
G1 X106.43 Y30.711 E0.72846
G1 X107.34 Y30.644 E0.77398
G1 X107.588 Y30.636 E0.78636
G1 X107.943 Y30.63 E0.80408
G1 X202.133 Y30.629 E5.50324
G1 X202.989 Y30.64 E5.54595
G1 X203.851 Y30.686 E5.58901
G1 X204.012 Y30.701 E5.59708
G1 X204.593 Y30.771 E5.62627
G1 X204.926 Y30.82 E5.64307
G1 X205.848 Y30.996 E5.6899
G1 X206.75 Y31.25 E5.73665
G1 X207.333 Y31.459 E5.76755
M117 Time Left 6h00m01s
G1 X207.747 Y31.621 E5.78973
G1 X208.179 Y31.801 E5.81307
G1 X209.023 Y32.209 E5.85984
G1 X209.83 Y32.688 E5.90666
G1 X210.393 Y33.082 E5.94095
G1 X210.811 Y33.394 E5.96697
G1 X211.538 Y33.986 E6.01374
G1 X212.212 Y34.639 E6.06056
G1 X212.839 Y35.36 E6.10823
G1 X213.092 Y35.678 E6.12851
G1 X213.367 Y36.039 E6.15115
G1 X213.432 Y36.128 E6.15665
G1 X213.952 Y36.909 E6.20346
G1 X214.404 Y37.73 E6.25021
G1 X214.627 Y38.208 E6.27653
G1 X214.798 Y38.599 E6.29782
G1 X214.973 Y39.022 E6.32066
G1 X215.282 Y39.908 E6.36747
G1 X215.515 Y40.816 E6.41424
G1 X215.628 Y41.446 E6.44617
G1 X215.697 Y41.904 E6.46928
G1 X215.756 Y42.358 E6.49212
G1 X215.825 Y43.284 E6.53845
G1 X215.833 Y43.533 E6.55088
G1 X215.839 Y43.886 E6.56849
G1 X215.839 Y149.08 E11.81664
G1 X215.829 Y149.777 E11.85142
G1 X215.783 Y150.633 E11.89418
G1 X215.768 Y150.795 E11.9023
G1 X215.701 Y151.36 E11.93069
G1 X215.653 Y151.691 E11.94737
G1 X215.479 Y152.612 E11.99413
G1 X215.227 Y153.516 E12.04095
G1 X215.009 Y154.125 E12.07323
G1 X214.846 Y154.541 E12.09552
G1 X214.668 Y154.968 E12.1186
G1 X214.26 Y155.812 E12.16537
M117 Time Left 5h59m31s
G1 X213.781 Y156.619 E12.21218
G1 X213.387 Y157.182 E12.24647
G1 X213.075 Y157.6 E12.27249
G1 X212.483 Y158.327 E12.31927
G1 X211.83 Y159.001 E12.36608
G1 X211.109 Y159.628 E12.41375
G1 X210.791 Y159.881 E12.43403
G1 X210.412 Y160.169 E12.45778
G1 X210.324 Y160.233 E12.4632
G1 X209.543 Y160.752 E12.50999
G1 X208.72 Y161.202 E12.55678
G1 X208.266 Y161.414 E12.58178
G1 X207.88 Y161.583 E12.6028
G1 X207.511 Y161.736 E12.62273
G1 X206.628 Y162.051 E12.66951
G1 X205.72 Y162.289 E12.71634
G1 X205.023 Y162.417 E12.75169
G1 X204.565 Y162.486 E12.7748
G1 X204.096 Y162.547 E12.7984
G1 X203.186 Y162.614 E12.84392
G1 X202.938 Y162.622 E12.8563
G1 X202.583 Y162.628 E12.87401
G1 X108.235 Y162.628 E17.58105
G1 X107.538 Y162.618 E17.61583
G1 X106.682 Y162.572 E17.6586
G1 X106.52 Y162.557 E17.66671
G1 X105.933 Y162.487 E17.69621
G1 X105.6 Y162.438 E17.713
G1 X104.678 Y162.262 E17.75983
G1 X103.776 Y162.008 E17.80658
G1 X103.193 Y161.799 E17.83748
G1 X102.779 Y161.637 E17.85966
G1 X102.347 Y161.457 E17.88301
G1 X101.503 Y161.049 E17.92978
G1 X100.696 Y160.57 E17.97659
G1 X100.133 Y160.176 E18.01088
G1 X99.715 Y159.864 E18.0369
G1 X98.988 Y159.272 E18.08367
M117 Time Left 5h59m01s
G1 X98.314 Y158.619 E18.13049
G1 X97.675 Y157.883 E18.17912
G1 X97.411 Y157.55 E18.20032
G1 X97.145 Y157.2 E18.22225
G1 X97.091 Y157.126 E18.22683
G1 X96.571 Y156.346 E18.27359
G1 X96.12 Y155.524 E18.32037
G1 X95.899 Y155.05 E18.34646
G1 X95.728 Y154.659 E18.36775
G1 X95.553 Y154.236 E18.39059
G1 X95.244 Y153.35 E18.43741
G1 X95.011 Y152.442 E18.48417
G1 X94.898 Y151.812 E18.51611
G1 X94.829 Y151.354 E18.53921
G1 X94.768 Y150.885 E18.56281
G1 X94.7 Y149.953 E18.60943
G1 X94.692 Y149.689 E18.62261
G1 X94.687 Y149.356 E18.63922
G1 X94.687 Y44.178 E23.88658
G1 X94.697 Y43.48 E23.9214
G1 X94.743 Y42.618 E23.96447
G1 X94.758 Y42.457 E23.97254
G1 X94.825 Y41.898 E24.00062
G1 X94.873 Y41.567 E24.01731
G1 X95.047 Y40.646 E24.06407
G1 X95.299 Y39.742 E24.11089
G1 X95.521 Y39.123 E24.1437
G1 X95.688 Y38.698 E24.16648
G0 F6000 X96.06 Y38.844
G1 F1200 X96.219 Y38.462 E24.18713
G1 X96.619 Y37.633 E24.23305
G1 X97.09 Y36.842 E24.27898
G1 X97.459 Y36.316 E24.31103
G1 X97.771 Y35.898 E24.33705
G1 X98.354 Y35.184 E24.38304
G1 X98.996 Y34.524 E24.42898
G1 X99.667 Y33.943 E24.47326
M117 Time Left 5h58m31s
G1 X99.985 Y33.69 E24.49353
G1 X100.349 Y33.412 E24.51638
G1 X100.437 Y33.348 E24.52181
G1 X101.205 Y32.84 E24.56775
G1 X102.413 Y32.214 E24.63563
G1 X102.805 Y32.042 E24.65699
G1 X103.227 Y31.867 E24.67978
G1 X104.097 Y31.565 E24.72573
G1 X104.989 Y31.339 E24.77163
G1 X105.563 Y31.236 E24.80073
G1 X106.021 Y31.167 E24.82384
G1 X106.476 Y31.108 E24.84673
G1 X107.353 Y31.044 E24.8906
G1 X107.601 Y31.036 E24.90297
G1 X107.943 Y31.03 E24.92004
G1 X202.133 Y31.029 E29.6192
G1 X202.983 Y31.04 E29.66161
G1 X203.814 Y31.085 E29.70313
G1 X203.975 Y31.1 E29.7112
G1 X204.535 Y31.167 E29.73933
G1 X204.868 Y31.216 E29.75613
G1 X205.772 Y31.389 E29.80204
G1 X206.658 Y31.641 E29.848
G1 X207.188 Y31.832 E29.87611
G1 X207.602 Y31.994 E29.89829
G1 X208.02 Y32.168 E29.92087
G1 X208.849 Y32.569 E29.96682
G1 X209.639 Y33.042 E30.01276
G1 X210.153 Y33.402 E30.04406
G1 X210.571 Y33.714 E30.07009
G1 X211.285 Y34.297 E30.11607
G1 X211.945 Y34.939 E30.16201
G1 X212.526 Y35.61 E30.20629
G1 X212.779 Y35.928 E30.22657
G1 X213.044 Y36.275 E30.24835
G1 X213.109 Y36.364 E30.25385
G1 X213.619 Y37.131 E30.2998
M117 Time Left 5h58m01s
G1 X214.061 Y37.938 E30.3457
G1 X214.261 Y38.369 E30.36941
G1 X214.432 Y38.76 E30.3907
G1 X214.602 Y39.17 E30.41284
G1 X214.904 Y40.04 E30.45879
G1 X215.13 Y40.932 E30.5047
G1 X215.233 Y41.506 E30.53379
G1 X215.302 Y41.964 E30.5569
G1 X215.359 Y42.405 E30.57908
G1 X215.426 Y43.297 E30.62371
G1 X215.434 Y43.546 E30.63614
G1 X215.439 Y43.886 E30.65311
G1 X215.439 Y149.074 E35.90096
G1 X215.429 Y149.771 E35.93573
G1 X215.385 Y150.596 E35.97695
G1 X215.37 Y150.758 E35.98507
G1 X215.305 Y151.302 E36.0124
G1 X215.257 Y151.633 E36.02909
G1 X215.086 Y152.538 E36.07504
G1 X214.836 Y153.424 E36.12097
G1 X214.636 Y153.979 E36.1504
G1 X214.473 Y154.395 E36.17269
G1 X214.301 Y154.809 E36.19505
G1 X213.9 Y155.638 E36.241
G1 X213.427 Y156.428 E36.28694
G1 X213.067 Y156.942 E36.31824
G1 X212.755 Y157.36 E36.34427
G1 X212.172 Y158.074 E36.39025
G1 X211.53 Y158.734 E36.43619
G1 X210.859 Y159.315 E36.48047
G1 X210.541 Y159.568 E36.50075
G1 X210.177 Y159.846 E36.5236
G1 X210.089 Y159.91 E36.52902
G1 X209.321 Y160.418 E36.57496
G1 X208.105 Y161.047 E36.64327
G1 X207.719 Y161.216 E36.66429
G1 X207.361 Y161.366 E36.68365
G1 X206.493 Y161.674 E36.7296
M117 Time Left 5h57m31s
G1 X205.602 Y161.905 E36.77553
G1 X204.963 Y162.022 E36.80794
G1 X204.505 Y162.091 E36.83104
G1 X204.05 Y162.15 E36.85393
G1 X203.173 Y162.214 E36.8978
G1 X202.925 Y162.222 E36.91018
G1 X202.583 Y162.228 E36.92725
G1 X108.241 Y162.228 E41.63399
G1 X107.544 Y162.218 E41.66877
G1 X106.719 Y162.174 E41.70998
G1 X106.557 Y162.159 E41.7181
G1 X105.991 Y162.091 E41.74654
G1 X105.658 Y162.042 E41.76333
G1 X104.754 Y161.869 E41.80925
G1 X103.868 Y161.617 E41.85521
G1 X103.338 Y161.426 E41.88332
G1 X102.924 Y161.264 E41.9055
G1 X102.506 Y161.09 E41.92808
G1 X101.677 Y160.689 E41.97403
G1 X100.887 Y160.216 E42.01996
G1 X100.373 Y159.856 E42.05127
G1 X99.955 Y159.544 E42.0773
G1 X99.241 Y158.961 E42.12328
G1 X98.581 Y158.319 E42.16922
G1 X97.989 Y157.634 E42.21439
G1 X97.725 Y157.301 E42.23559
G1 X97.468 Y156.964 E42.25673
G1 X97.414 Y156.89 E42.2613
G1 X96.905 Y156.124 E42.30719
G1 X96.463 Y155.316 E42.35314
G1 X96.265 Y154.889 E42.37662
G1 X96.094 Y154.498 E42.39791
G1 X95.924 Y154.088 E42.42005
G1 X95.622 Y153.218 E42.466
G1 X95.396 Y152.326 E42.51191
G1 X95.293 Y151.752 E42.541
G1 X95.224 Y151.294 E42.56411
M117 Time Left 5h57m01s
G1 X95.165 Y150.839 E42.587
G1 X95.1 Y149.941 E42.63192
G1 X95.092 Y149.677 E42.64509
G1 X95.087 Y149.356 E42.66111
G1 X95.087 Y44.184 E47.90816
G1 X95.097 Y43.486 E47.94299
G1 X95.142 Y42.655 E47.98451
G1 X95.157 Y42.494 E47.99258
G1 X95.221 Y41.956 E48.01961
G1 X95.269 Y41.625 E48.03629
G1 X95.44 Y40.72 E48.08224
G1 X95.69 Y39.834 E48.12817
G1 X95.893 Y39.269 E48.15812
G1 X96.06 Y38.844 E48.1809
G0 F6000 X96.433 Y38.991
G1 F1200 X96.586 Y38.621 E48.20088
G1 X96.98 Y37.808 E48.24595
G1 X97.444 Y37.033 E48.29102
G1 X97.78 Y36.555 E48.32017
G1 X98.092 Y36.137 E48.34619
G1 X98.664 Y35.438 E48.39125
G1 X99.295 Y34.792 E48.4363
G1 X99.916 Y34.256 E48.47723
G1 X100.234 Y34.003 E48.4975
G1 X100.585 Y33.736 E48.51951
G1 X100.673 Y33.672 E48.52494
G1 X101.426 Y33.174 E48.56998
G1 X102.574 Y32.581 E48.63444
G1 X102.966 Y32.409 E48.6558
G1 X103.375 Y32.239 E48.67789
G1 X104.228 Y31.943 E48.72294
G1 X105.104 Y31.724 E48.76799
G1 X105.622 Y31.632 E48.79424
G1 X106.08 Y31.563 E48.81734
G1 X106.522 Y31.506 E48.83958
G1 X107.366 Y31.443 E48.8818
G1 X107.614 Y31.435 E48.89418
M117 Time Left 5h56m31s
G1 X107.943 Y31.43 E48.9106
G1 X202.133 Y31.429 E53.60975
M73 P1
G1 X202.977 Y31.44 E53.65187
G1 X203.777 Y31.483 E53.69184
G1 X203.938 Y31.498 E53.6999
G1 X204.477 Y31.563 E53.72699
G1 X204.81 Y31.612 E53.74378
G1 X205.697 Y31.783 E53.78885
G1 X206.565 Y32.031 E53.83389
G1 X207.042 Y32.204 E53.8592
G1 X207.456 Y32.366 E53.88138
G1 X207.861 Y32.535 E53.90327
G1 X208.674 Y32.93 E53.94837
G1 X209.448 Y33.395 E53.99342
G1 X209.914 Y33.723 E54.02185
G1 X210.332 Y34.035 E54.04787
G1 X211.031 Y34.607 E54.09293
G1 X211.677 Y35.238 E54.13798
G1 X212.213 Y35.859 E54.17891
G1 X212.466 Y36.177 E54.19918
G1 X212.721 Y36.511 E54.22015
G1 X212.786 Y36.6 E54.22565
G1 X213.286 Y37.352 E54.2707
G1 X213.894 Y38.529 E54.33679
G1 X214.065 Y38.92 E54.35808
G1 X214.23 Y39.318 E54.37958
G1 X214.526 Y40.171 E54.42462
G1 X214.745 Y41.047 E54.46967
G1 X214.837 Y41.565 E54.49592
G1 X214.906 Y42.023 E54.51903
G1 X214.962 Y42.451 E54.54056
G1 X215.026 Y43.309 E54.58349
G1 X215.034 Y43.558 E54.59592
G1 X215.039 Y43.886 E54.61228
G1 X215.039 Y149.068 E59.85983
G1 X215.029 Y149.765 E59.89461
G1 X214.987 Y150.559 E59.93428
G1 X214.972 Y150.721 E59.9424
M117 Time Left 5h56m01s
G1 X214.909 Y151.245 E59.96873
G1 X214.861 Y151.576 E59.98541
G1 X214.692 Y152.463 E60.03046
G1 X214.446 Y153.332 E60.07552
G1 X214.264 Y153.833 E60.10211
G1 X214.101 Y154.249 E60.1244
G1 X213.934 Y154.65 E60.14608
G1 X213.539 Y155.463 E60.19117
G1 X213.074 Y156.237 E60.23622
G1 X212.746 Y156.703 E60.26465
G1 X212.434 Y157.121 E60.29067
G1 X211.862 Y157.82 E60.33573
G1 X211.231 Y158.466 E60.38079
G1 X210.61 Y159.002 E60.42171
G1 X210.292 Y159.255 E60.44198
G1 X209.941 Y159.522 E60.46399
G1 X209.853 Y159.586 E60.46942
G1 X209.1 Y160.084 E60.51446
G1 X207.945 Y160.681 E60.57932
G1 X207.559 Y160.85 E60.60034
G1 X207.211 Y160.995 E60.61915
G1 X206.36 Y161.296 E60.66419
G1 X205.485 Y161.521 E60.70926
G1 X204.904 Y161.626 E60.73872
G1 X204.446 Y161.695 E60.76182
G1 X204.004 Y161.752 E60.78406
G1 X203.16 Y161.815 E60.82628
G1 X202.912 Y161.823 E60.83866
G1 X202.583 Y161.828 E60.85508
G1 X108.247 Y161.828 E65.56152
G1 X107.55 Y161.818 E65.5963
G1 X106.756 Y161.776 E65.63596
G1 X106.594 Y161.761 E65.64408
G1 X106.049 Y161.695 E65.67147
G1 X105.716 Y161.646 E65.68826
G1 X104.829 Y161.475 E65.73333
G1 X103.961 Y161.227 E65.77837
M117 Time Left 5h55m31s
G1 X103.484 Y161.054 E65.80368
G1 X103.07 Y160.892 E65.82586
G1 X102.665 Y160.723 E65.84776
G1 X101.852 Y160.328 E65.89285
G1 X101.078 Y159.863 E65.9379
G1 X100.612 Y159.535 E65.96633
G1 X100.194 Y159.223 E65.99235
G1 X99.495 Y158.651 E66.03741
G1 X98.849 Y158.02 E66.08247
G1 X98.302 Y157.386 E66.12424
G1 X98.038 Y157.053 E66.14544
G1 X97.792 Y156.729 E66.16574
G1 X97.738 Y156.655 E66.17031
G1 X97.238 Y155.902 E66.2154
G1 X96.632 Y154.729 E66.28127
G1 X96.461 Y154.338 E66.30256
G1 X96.296 Y153.94 E66.32406
G1 X96 Y153.087 E66.3691
G1 X95.781 Y152.211 E66.41415
G1 X95.689 Y151.693 E66.4404
G1 X95.62 Y151.235 E66.46351
G1 X95.563 Y150.793 E66.48574
G1 X95.5 Y149.929 E66.52896
G1 X95.492 Y149.665 E66.54214
G1 X95.487 Y149.356 E66.55756
G1 X95.487 Y44.19 E71.80431
G1 X95.497 Y43.492 E71.83914
G1 X95.54 Y42.692 E71.87911
G1 X95.555 Y42.531 E71.88717
G1 X95.617 Y42.013 E71.9132
G1 X95.665 Y41.682 E71.92989
G1 X95.834 Y40.795 E71.97494
G1 X96.08 Y39.926 E72.02
G1 X96.266 Y39.416 E72.04708
G1 X96.433 Y38.991 E72.06986
G1 F3000 E67.06986
;MESH:Cubierta abajo V1.stl
G0 F6000 X194.914 Y118.124
M117 Time Left 5h55m01s
G0 X194.071 Y119.574
;TYPE:WALL-INNER
G1 F3000 E72.09647
G1 F1200 X194.726 Y119.846 E72.13185
G1 X195.426 Y119.937 E72.16707
G1 X196.126 Y119.846 E72.20229
G1 X196.781 Y119.574 E72.23767
G1 X197.341 Y119.144 E72.27289
G1 X197.771 Y118.584 E72.30812
G1 X198.043 Y117.929 E72.3435
G1 X198.134 Y117.229 E72.37872
G1 X198.043 Y116.529 E72.41394
G1 X197.771 Y115.874 E72.44932
G1 X197.341 Y115.314 E72.48455
G1 X196.781 Y114.884 E72.51977
G1 X196.126 Y114.612 E72.55515
G1 X195.426 Y114.521 E72.59037
G1 X194.726 Y114.612 E72.62559
G1 X194.071 Y114.884 E72.66097
G1 X193.511 Y115.314 E72.6962
G1 X193.081 Y115.874 E72.73142
G1 X192.809 Y116.529 E72.7668
G1 X192.718 Y117.229 E72.80202
G1 X192.809 Y117.929 E72.83724
G1 X193.081 Y118.584 E72.87262
G1 X193.511 Y119.144 E72.90785
G1 X194.071 Y119.574 E72.94307
G0 F6000 X194.273 Y119.225
G1 F1200 X194.83 Y119.456 E72.97316
G1 X195.426 Y119.534 E73.00314
G1 X196.022 Y119.456 E73.03313
G1 X196.579 Y119.225 E73.06322
G1 X197.056 Y118.859 E73.09321
G1 X197.422 Y118.382 E73.12321
G1 X197.653 Y117.825 E73.15329
G1 X197.731 Y117.229 E73.18328
G1 X197.653 Y116.633 E73.21327
M117 Time Left 5h54m31s
G1 X197.422 Y116.076 E73.24335
G1 X197.056 Y115.599 E73.27335
G1 X196.579 Y115.233 E73.30334
G1 X196.022 Y115.002 E73.33343
G1 X195.426 Y114.924 E73.36341
G1 X194.83 Y115.002 E73.3934
G1 X194.273 Y115.233 E73.42349
G1 X193.796 Y115.599 E73.45348
G1 X193.43 Y116.076 E73.48348
G1 X193.199 Y116.633 E73.51356
G1 X193.121 Y117.229 E73.54355
G1 X193.199 Y117.825 E73.57354
G1 X193.43 Y118.382 E73.60362
G1 X193.796 Y118.859 E73.63362
G1 X194.273 Y119.225 E73.66361
G0 F6000 X194.475 Y118.876
;TYPE:WALL-OUTER
G1 F1200 X194.934 Y119.066 E73.6884
G1 X195.426 Y119.131 E73.71316
G1 X195.918 Y119.066 E73.73792
G1 X196.377 Y118.876 E73.7627
G1 X196.771 Y118.574 E73.78747
G1 X197.073 Y118.18 E73.81223
G1 X197.263 Y117.721 E73.83702
G1 X197.328 Y117.229 E73.86178
G1 X197.263 Y116.737 E73.88654
