;FLAVOR:Marlin
M73 P0
M117 Time Left 7h30m44s
;TIME:27044
;Filament used: 20.9735m
;Layer height: 0.2
;MINX:51.924
;MINY:46.5
;MINZ:0.3
;MAXX:183.076
;MAXY:188.499
;MAXZ:16.7
;POSTPROCESSED
;Generated with Cura_SteamEngine 4.9.0
M82 ;absolute extrusion mode
; Ender 3 Custom Start G-code
G92 E0 ; Reset Extruder
G28 ; Home all axes
M140 S65     ; set bed temperature to e.g. 55 째C and continue
M104 S210.0   ; set hot end temperature to e.g. 210 째C and continue
M190 S65     ; wait for bed temperature to reach e.g. 55 째C
M109 S210.0   ; wait for hot end temperature to reach e.g. 210 째C
G1 Z2.0 F3000 ; Move Z Axis up little to prevent scratching of Heat Bed
G1 X0.1 Y20 Z0.3 F5000.0 ; Move to start position
G1 X0.1 Y200.0 Z0.3 F1500.0 E15 ; Draw the first line
G1 X0.4 Y200.0 Z0.3 F5000.0 ; Move to side a little
G1 X0.4 Y20 Z0.3 F1500.0 E30 ; Draw the second line
G92 E0 ; Reset Extruder
G1 Z2.0 F3000 ; Move Z Axis up little to prevent scratching of Heat Bed
G1 X5 Y20 Z0.3 F5000.0 ; Move over to prevent blob squish
G92 E0
G92 E0
G1 F3000 E-5
;LAYER_COUNT:83
;LAYER:0
M117 Printing CE3_Cubierta inferior V2 - Layer 0 of 82
M107
G0 F6000 X55.28 Y50.802 Z0.3
;TYPE:SKIRT
G1 F3000 E0.02661
G1 F1200 X55.933 Y50.128 E0.07343
G1 X56.654 Y49.501 E0.1211
G1 X56.972 Y49.248 E0.14137
G1 X57.351 Y48.96 E0.16512
G1 X57.439 Y48.896 E0.17055
G1 X58.22 Y48.377 E0.21733
G1 X59.043 Y47.927 E0.26413
G1 X59.489 Y47.719 E0.28868
G1 X59.881 Y47.547 E0.31004
G1 X60.316 Y47.367 E0.33352
G1 X61.202 Y47.058 E0.38034
G1 X62.11 Y46.825 E0.4271
G1 X62.74 Y46.712 E0.45904
G1 X63.198 Y46.643 E0.48214
G1 X63.667 Y46.582 E0.50574
G1 X64.577 Y46.515 E0.55126
G1 X64.825 Y46.507 E0.56364
G1 X65.18 Y46.501 E0.58136
G1 X169.37 Y46.5 E5.77942
G1 X170.226 Y46.511 E5.82213
G1 X171.088 Y46.557 E5.86519
G1 X171.249 Y46.572 E5.87326
G1 X171.83 Y46.642 E5.90246
G1 X172.163 Y46.691 E5.91925
G1 X173.085 Y46.867 E5.96608
G1 X173.987 Y47.121 E6.01283
G1 X174.57 Y47.33 E6.04373
G1 X174.984 Y47.492 E6.06591
M117 Time Left 7h30m14s
G1 X175.416 Y47.672 E6.08925
G1 X176.26 Y48.08 E6.13602
G1 X177.067 Y48.559 E6.18284
G1 X177.63 Y48.953 E6.21713
G1 X178.048 Y49.265 E6.24315
G1 X178.775 Y49.857 E6.28992
G1 X179.449 Y50.51 E6.33674
G1 X180.076 Y51.231 E6.38441
G1 X180.329 Y51.549 E6.40469
G1 X180.604 Y51.91 E6.42733
G1 X180.669 Y51.999 E6.43283
G1 X181.189 Y52.78 E6.47964
G1 X181.641 Y53.601 E6.52639
G1 X181.864 Y54.079 E6.55271
G1 X182.035 Y54.47 E6.574
G1 X182.21 Y54.893 E6.59684
G1 X182.519 Y55.779 E6.64365
G1 X182.752 Y56.687 E6.69042
G1 X182.865 Y57.317 E6.72235
G1 X182.934 Y57.775 E6.74546
G1 X182.993 Y58.229 E6.7683
G1 X183.062 Y59.155 E6.81463
G1 X183.07 Y59.404 E6.82706
G1 X183.076 Y59.757 E6.84467
G1 X183.076 Y174.951 E12.59172
G1 X183.066 Y175.648 E12.6265
G1 X183.02 Y176.504 E12.66927
G1 X183.005 Y176.666 E12.67738
G1 X182.938 Y177.231 E12.70577
G1 X182.89 Y177.562 E12.72246
G1 X182.716 Y178.483 E12.76922
G1 X182.464 Y179.387 E12.81604
G1 X182.246 Y179.996 E12.84831
M117 Time Left 7h29m44s
G1 X182.083 Y180.412 E12.8706
G1 X181.905 Y180.839 E12.89368
G1 X181.497 Y181.683 E12.94045
G1 X181.018 Y182.49 E12.98727
G1 X180.624 Y183.053 E13.02155
G1 X180.312 Y183.471 E13.04757
G1 X179.72 Y184.198 E13.09435
G1 X179.067 Y184.872 E13.14117
G1 X178.346 Y185.499 E13.18884
G1 X178.028 Y185.752 E13.20911
G1 X177.649 Y186.04 E13.23286
G1 X177.561 Y186.104 E13.23829
G1 X176.78 Y186.623 E13.28507
G1 X175.957 Y187.073 E13.33187
G1 X175.503 Y187.285 E13.35687
G1 X175.117 Y187.454 E13.37789
G1 X174.748 Y187.607 E13.39782
G1 X173.865 Y187.922 E13.44459
G1 X172.957 Y188.16 E13.49142
G1 X172.26 Y188.288 E13.52677
G1 X171.802 Y188.357 E13.54988
G1 X171.333 Y188.418 E13.57348
G1 X170.423 Y188.485 E13.619
G1 X170.175 Y188.493 E13.63138
G1 X169.82 Y188.499 E13.64909
G1 X65.472 Y188.499 E18.85504
G1 X64.775 Y188.489 E18.88981
G1 X63.919 Y188.443 E18.93258
G1 X63.757 Y188.428 E18.9407
G1 X63.17 Y188.358 E18.97019
G1 X62.837 Y188.309 E18.98698
G1 X61.915 Y188.133 E19.03381
M117 Time Left 7h29m14s
G1 X61.013 Y187.879 E19.08056
G1 X60.43 Y187.67 E19.11146
G1 X60.016 Y187.508 E19.13364
G1 X59.584 Y187.328 E19.15699
G1 X58.74 Y186.92 E19.20376
G1 X57.933 Y186.441 E19.25058
G1 X57.37 Y186.047 E19.28486
G1 X56.952 Y185.735 E19.31089
G1 X56.225 Y185.143 E19.35766
G1 X55.551 Y184.49 E19.40448
G1 X54.912 Y183.754 E19.45311
G1 X54.648 Y183.421 E19.47431
G1 X54.382 Y183.071 E19.49624
G1 X54.328 Y182.997 E19.50081
G1 X53.808 Y182.217 E19.54758
G1 X53.357 Y181.395 E19.59436
G1 X53.136 Y180.921 E19.62045
G1 X52.965 Y180.53 E19.64174
G1 X52.79 Y180.107 E19.66458
G1 X52.481 Y179.221 E19.71139
G1 X52.248 Y178.313 E19.75816
G1 X52.135 Y177.683 E19.79009
G1 X52.066 Y177.225 E19.8132
G1 X52.005 Y176.756 E19.83679
G1 X51.937 Y175.824 E19.88342
G1 X51.929 Y175.56 E19.89659
G1 X51.924 Y175.227 E19.91321
G1 X51.924 Y60.049 E25.65946
G1 X51.934 Y59.351 E25.69429
G1 X51.98 Y58.489 E25.73736
G1 X51.995 Y58.328 E25.74542
G1 X52.062 Y57.769 E25.77351
G1 X52.11 Y57.438 E25.7902
M117 Time Left 7h28m44s
G1 X52.284 Y56.517 E25.83696
G1 X52.536 Y55.613 E25.88378
G1 X52.758 Y54.994 E25.91659
G1 X52.925 Y54.569 E25.93937
G1 X53.088 Y54.175 E25.96064
G1 X53.496 Y53.33 E26.00746
G1 X53.974 Y52.523 E26.05425
G1 X54.376 Y51.947 E26.08929
G1 X54.688 Y51.529 E26.11532
G1 X55.28 Y50.802 E26.16209
G0 F6000 X55.591 Y51.055
G1 F1200 X56.233 Y50.395 E26.20803
G1 X56.904 Y49.814 E26.25231
G1 X57.222 Y49.561 E26.27258
G1 X57.586 Y49.283 E26.29543
G1 X57.674 Y49.219 E26.30086
G1 X58.442 Y48.711 E26.3468
G1 X59.65 Y48.085 E26.41468
G1 X60.042 Y47.913 E26.43604
G1 X60.464 Y47.738 E26.45883
G1 X61.334 Y47.436 E26.50477
G1 X62.226 Y47.21 E26.55068
G1 X62.8 Y47.107 E26.57978
G1 X63.258 Y47.038 E26.60288
G1 X63.713 Y46.979 E26.62577
G1 X64.59 Y46.915 E26.66964
G1 X64.838 Y46.907 E26.68202
G1 X65.18 Y46.901 E26.69909
G1 X169.37 Y46.9 E31.89715
G1 X170.22 Y46.911 E31.93956
G1 X171.051 Y46.956 E31.98108
G1 X171.212 Y46.971 E31.98914
M117 Time Left 7h28m14s
G1 X171.772 Y47.038 E32.01728
G1 X172.105 Y47.087 E32.03407
G1 X173.009 Y47.26 E32.07999
G1 X173.895 Y47.512 E32.12595
G1 X174.425 Y47.703 E32.15406
G1 X174.839 Y47.865 E32.17624
G1 X175.257 Y48.039 E32.19882
G1 X176.086 Y48.44 E32.24477
G1 X176.876 Y48.913 E32.29071
G1 X177.39 Y49.273 E32.32201
G1 X177.808 Y49.585 E32.34804
G1 X178.522 Y50.168 E32.39402
G1 X179.182 Y50.81 E32.43996
G1 X179.763 Y51.481 E32.48424
G1 X180.016 Y51.799 E32.50452
G1 X180.281 Y52.146 E32.5263
G1 X180.346 Y52.235 E32.5318
G1 X180.856 Y53.002 E32.57775
G1 X181.298 Y53.809 E32.62365
G1 X181.498 Y54.24 E32.64736
G1 X181.669 Y54.631 E32.66865
G1 X181.839 Y55.041 E32.69079
G1 X182.141 Y55.911 E32.73674
G1 X182.367 Y56.803 E32.78265
G1 X182.47 Y57.377 E32.81174
G1 X182.539 Y57.835 E32.83485
G1 X182.596 Y58.276 E32.85703
G1 X182.663 Y59.168 E32.90166
G1 X182.671 Y59.417 E32.91409
G1 X182.676 Y59.757 E32.93105
G1 X182.676 Y174.945 E38.67781
G1 X182.666 Y175.642 E38.71258
G1 X182.622 Y176.467 E38.7538
M117 Time Left 7h27m44s
G1 X182.607 Y176.629 E38.76192
G1 X182.542 Y177.173 E38.78925
G1 X182.494 Y177.504 E38.80594
G1 X182.323 Y178.409 E38.85189
G1 X182.073 Y179.295 E38.89782
G1 X181.873 Y179.85 E38.92725
G1 X181.71 Y180.266 E38.94954
G1 X181.538 Y180.68 E38.97191
G1 X181.137 Y181.509 E39.01785
G1 X180.664 Y182.299 E39.06379
G1 X180.304 Y182.813 E39.09509
G1 X179.992 Y183.231 E39.12112
G1 X179.409 Y183.945 E39.16711
G1 X178.767 Y184.605 E39.21304
G1 X178.096 Y185.186 E39.25732
G1 X177.778 Y185.439 E39.2776
G1 X177.414 Y185.717 E39.30045
G1 X177.326 Y185.781 E39.30588
G1 X176.558 Y186.289 E39.35182
G1 X175.342 Y186.918 E39.42012
G1 X174.956 Y187.087 E39.44114
G1 X174.598 Y187.237 E39.46051
G1 X173.73 Y187.545 E39.50646
G1 X172.839 Y187.776 E39.55238
G1 X172.2 Y187.893 E39.58479
G1 X171.742 Y187.962 E39.60789
G1 X171.287 Y188.021 E39.63078
G1 X170.41 Y188.085 E39.67465
G1 X170.162 Y188.093 E39.68703
G1 X169.82 Y188.099 E39.7041
G1 X65.478 Y188.099 E44.90974
G1 X64.781 Y188.089 E44.94452
M117 Time Left 7h27m14s
G1 X63.956 Y188.045 E44.98574
G1 X63.794 Y188.03 E44.99385
G1 X63.228 Y187.962 E45.0223
G1 X62.895 Y187.913 E45.03909
G1 X61.991 Y187.74 E45.08501
G1 X61.105 Y187.488 E45.13096
G1 X60.575 Y187.297 E45.15907
G1 X60.161 Y187.135 E45.18125
G1 X59.743 Y186.961 E45.20384
G1 X58.914 Y186.56 E45.24978
G1 X58.124 Y186.087 E45.29572
G1 X57.61 Y185.727 E45.32703
G1 X57.192 Y185.415 E45.35305
G1 X56.478 Y184.832 E45.39904
G1 X55.818 Y184.19 E45.44497
G1 X55.226 Y183.505 E45.49014
G1 X54.962 Y183.172 E45.51134
G1 X54.705 Y182.835 E45.53249
G1 X54.651 Y182.761 E45.53706
G1 X54.142 Y181.995 E45.58294
G1 X53.7 Y181.187 E45.62889
G1 X53.502 Y180.76 E45.65237
G1 X53.331 Y180.369 E45.67366
G1 X53.161 Y179.959 E45.69581
G1 X52.859 Y179.089 E45.74175
G1 X52.633 Y178.197 E45.78766
G1 X52.53 Y177.623 E45.81675
G1 X52.461 Y177.165 E45.83986
G1 X52.402 Y176.71 E45.86275
G1 X52.337 Y175.812 E45.90767
G1 X52.329 Y175.548 E45.92085
G1 X52.324 Y175.227 E45.93686
G1 X52.324 Y60.055 E51.68282
M117 Time Left 7h26m44s
G1 X52.334 Y59.357 E51.71765
G1 X52.379 Y58.526 E51.75916
G1 X52.394 Y58.365 E51.76723
G1 X52.458 Y57.827 E51.79426
G1 X52.506 Y57.496 E51.81095
G1 X52.677 Y56.591 E51.8569
G1 X52.927 Y55.705 E51.90283
G1 X53.13 Y55.14 E51.93278
G1 X53.297 Y54.715 E51.95556
G1 X53.456 Y54.333 E51.9762
G1 X53.856 Y53.504 E52.02213
G1 X54.327 Y52.713 E52.06805
G1 X54.696 Y52.187 E52.10011
G1 X55.008 Y51.769 E52.12613
G1 X55.591 Y51.055 E52.17212
G0 F6000 X55.901 Y51.309
G1 F1200 X56.532 Y50.663 E52.21717
G1 X57.153 Y50.127 E52.2581
G1 X57.471 Y49.874 E52.27837
G1 X57.822 Y49.607 E52.30038
G1 X57.91 Y49.543 E52.3058
G1 X58.663 Y49.045 E52.35084
G1 X59.811 Y48.452 E52.41531
G1 X60.203 Y48.28 E52.43666
G1 X60.612 Y48.11 E52.45876
G1 X61.465 Y47.814 E52.50381
G1 X62.341 Y47.595 E52.54886
G1 X62.859 Y47.503 E52.5751
G1 X63.317 Y47.434 E52.59821
G1 X63.759 Y47.377 E52.62045
G1 X64.603 Y47.314 E52.66267
G1 X64.851 Y47.306 E52.67505
M117 Time Left 7h26m14s
G1 X65.18 Y47.301 E52.69147
G1 X169.37 Y47.3 E57.88953
G1 X170.214 Y47.311 E57.93164
G1 X171.014 Y47.354 E57.97161
G1 X171.175 Y47.369 E57.97967
G1 X171.714 Y47.434 E58.00676
G1 X172.047 Y47.483 E58.02355
G1 X172.934 Y47.654 E58.06862
G1 X173.802 Y47.902 E58.11366
G1 X174.279 Y48.075 E58.13897
G1 X174.693 Y48.237 E58.16115
G1 X175.098 Y48.406 E58.18304
G1 X175.911 Y48.801 E58.22814
G1 X176.685 Y49.266 E58.27319
G1 X177.151 Y49.594 E58.30162
G1 X177.569 Y49.906 E58.32764
G1 X178.268 Y50.478 E58.3727
G1 X178.914 Y51.109 E58.41775
M73 P1
G1 X179.45 Y51.73 E58.45868
G1 X179.703 Y52.048 E58.47895
G1 X179.958 Y52.382 E58.49992
G1 X180.023 Y52.471 E58.50542
G1 X180.523 Y53.223 E58.55047
G1 X181.131 Y54.4 E58.61656
G1 X181.302 Y54.791 E58.63785
G1 X181.467 Y55.189 E58.65935
G1 X181.763 Y56.042 E58.7044
G1 X181.982 Y56.918 E58.74944
G1 X182.074 Y57.436 E58.77569
G1 X182.143 Y57.894 E58.7988
G1 X182.199 Y58.322 E58.82033
G1 X182.263 Y59.18 E58.86326
G1 X182.271 Y59.429 E58.87569
M117 Time Left 7h25m44s
G1 X182.276 Y59.757 E58.89205
G1 X182.276 Y174.939 E64.63851
G1 X182.266 Y175.636 E64.67328
G1 X182.224 Y176.43 E64.71295
G1 X182.209 Y176.592 E64.72107
G1 X182.146 Y177.116 E64.7474
G1 X182.098 Y177.447 E64.76409
G1 X181.929 Y178.334 E64.80914
G1 X181.683 Y179.203 E64.85419
G1 X181.501 Y179.704 E64.88079
G1 X181.338 Y180.12 E64.90308
G1 X181.171 Y180.521 E64.92475
G1 X180.776 Y181.334 E64.96984
G1 X180.311 Y182.108 E65.01489
G1 X179.983 Y182.574 E65.04332
G1 X179.671 Y182.992 E65.06934
G1 X179.099 Y183.691 E65.11441
G1 X178.468 Y184.337 E65.15946
G1 X177.847 Y184.873 E65.20038
G1 X177.529 Y185.126 E65.22066
G1 X177.178 Y185.393 E65.24266
G1 X177.09 Y185.457 E65.24809
G1 X176.337 Y185.955 E65.29313
G1 X175.182 Y186.552 E65.35799
G1 X174.796 Y186.721 E65.37902
G1 X174.448 Y186.866 E65.39783
G1 X173.597 Y187.167 E65.44286
G1 X172.722 Y187.392 E65.48793
G1 X172.141 Y187.497 E65.51739
G1 X171.683 Y187.566 E65.5405
G1 X171.241 Y187.623 E65.56273
G1 X170.397 Y187.686 E65.60496
M117 Time Left 7h25m14s
G1 X170.149 Y187.694 E65.61733
G1 X169.82 Y187.699 E65.63375
G1 X65.484 Y187.699 E70.83909
G1 X64.787 Y187.689 E70.87387
G1 X63.993 Y187.647 E70.91354
G1 X63.831 Y187.632 E70.92166
G1 X63.286 Y187.566 E70.94905
G1 X62.953 Y187.517 E70.96584
G1 X62.066 Y187.346 E71.01091
G1 X61.198 Y187.098 E71.05594
G1 X60.721 Y186.925 E71.08126
G1 X60.307 Y186.763 E71.10344
G1 X59.902 Y186.594 E71.12533
G1 X59.089 Y186.199 E71.17043
G1 X58.315 Y185.734 E71.21547
G1 X57.849 Y185.406 E71.2439
G1 X57.431 Y185.094 E71.26993
G1 X56.732 Y184.522 E71.31499
G1 X56.086 Y183.891 E71.36004
G1 X55.539 Y183.257 E71.40182
G1 X55.275 Y182.924 E71.42302
G1 X55.029 Y182.6 E71.44331
G1 X54.975 Y182.526 E71.44788
G1 X54.475 Y181.773 E71.49298
G1 X53.869 Y180.6 E71.55885
G1 X53.698 Y180.209 E71.58014
G1 X53.533 Y179.811 E71.60163
G1 X53.237 Y178.958 E71.64668
G1 X53.018 Y178.082 E71.69173
G1 X52.926 Y177.564 E71.71798
G1 X52.857 Y177.106 E71.74108
G1 X52.8 Y176.664 E71.76332
G1 X52.737 Y175.8 E71.80654
M117 Time Left 7h24m44s
G1 X52.729 Y175.536 E71.81971
G1 X52.724 Y175.227 E71.83513
G1 X52.724 Y60.061 E77.58079
G1 X52.734 Y59.363 E77.61561
G1 X52.777 Y58.563 E77.65558
G1 X52.792 Y58.402 E77.66365
G1 X52.854 Y57.884 E77.68968
G1 X52.902 Y57.553 E77.70637
G1 X53.071 Y56.666 E77.75141
G1 X53.317 Y55.797 E77.79647
G1 X53.503 Y55.287 E77.82356
G1 X53.67 Y54.862 E77.84634
G1 X53.823 Y54.492 E77.86631
G1 X54.217 Y53.679 E77.91139
G1 X54.681 Y52.904 E77.95645
G1 X55.017 Y52.426 E77.9856
G1 X55.329 Y52.008 E78.01162
G1 X55.901 Y51.309 E78.05668
G1 F3000 E73.05668
;MESH:Cubierta inferior V2.stl
G0 F6000 X157.151 Y138.995
G0 X156.308 Y140.445
;TYPE:WALL-INNER
G1 F3000 E78.08329
G1 F1200 X156.963 Y140.717 E78.11868
G1 X157.663 Y140.808 E78.15389
G1 X158.363 Y140.717 E78.18911
G1 X159.018 Y140.445 E78.22449
G1 X159.578 Y140.015 E78.25972
G1 X160.008 Y139.455 E78.29494
G1 X160.28 Y138.8 E78.33033
G1 X160.371 Y138.1 E78.36554
G1 X160.28 Y137.4 E78.40076
M117 Time Left 7h24m14s
G1 X160.008 Y136.745 E78.43614
G1 X159.578 Y136.185 E78.47137
G1 X159.018 Y135.755 E78.50659
G1 X158.363 Y135.483 E78.54198
G1 X157.663 Y135.392 E78.5772
G1 X156.963 Y135.483 E78.61241
G1 X156.308 Y135.755 E78.6478
G1 X155.748 Y136.185 E78.68302
G1 X155.318 Y136.745 E78.71825
G1 X155.046 Y137.4 E78.75363
G1 X154.955 Y138.1 E78.78885
G1 X155.046 Y138.8 E78.82406
G1 X155.318 Y139.455 E78.85945
G1 X155.748 Y140.015 E78.89467
G1 X156.308 Y140.445 E78.9299
G0 F6000 X156.51 Y140.096
G1 F1200 X157.067 Y140.327 E78.95998
G1 X157.663 Y140.405 E78.98997
G1 X158.259 Y140.327 E79.01996
G1 X158.816 Y140.096 E79.05004
G1 X159.293 Y139.73 E79.08004
G1 X159.659 Y139.253 E79.11003
G1 X159.89 Y138.696 E79.14012
G1 X159.968 Y138.1 E79.1701
G1 X159.89 Y137.504 E79.20009
G1 X159.659 Y136.947 E79.23018
G1 X159.293 Y136.47 E79.26017
G1 X158.816 Y136.104 E79.29017
G1 X158.259 Y135.873 E79.32025
G1 X157.663 Y135.795 E79.35024
G1 X157.067 Y135.873 E79.38023
G1 X156.51 Y136.104 E79.41031
M117 Time Left 7h23m44s
G1 X156.033 Y136.47 E79.44031
G1 X155.667 Y136.947 E79.4703
G1 X155.436 Y137.504 E79.50039
G1 X155.358 Y138.1 E79.53037
G1 X155.436 Y138.696 E79.56036
G1 X155.667 Y139.253 E79.59045
G1 X156.033 Y139.73 E79.62044
G1 X156.51 Y140.096 E79.65044
G0 F6000 X156.712 Y139.747
;TYPE:WALL-OUTER
G1 F1200 X157.171 Y139.937 E79.67522
G1 X157.663 Y140.002 E79.69998
G1 X158.155 Y139.937 E79.72474
G1 X158.614 Y139.747 E79.74952
G1 X159.008 Y139.445 E79.77429
G1 X159.31 Y139.051 E79.79906
G1 X159.5 Y138.592 E79.82384
G1 X159.565 Y138.1 E79.8486
G1 X159.5 Y137.608 E79.87336
G1 X159.31 Y137.149 E79.89814
